images/social/dribbble-2.svg

<svg height="30" viewBox="0 0 30 30" width="30" xmlns="http://www.w3.org/2000/svg"><path d="m15.2747203 2.66540147c-1.675185-1.68175182-3.9087649-2.63474451-6.30986334-2.63474451s-4.63467835.95299269-6.3098633 2.63474451c-1.67518495 1.68175183-2.62445641 3.9240876-2.62445641 6.33459853 0 2.4105109.94927146 4.6528467 2.62445641 6.3345985 1.67518495 1.6817519 3.90876489 2.6347445 6.3098633 2.6347445 2.40109844 0 4.63467834-.9529926 6.30986334-2.6347445 1.6751849-1.6817518 2.6244564-3.9240876 2.6244564-6.3345985 0-2.41051093-.9492715-4.6528467-2.6244564-6.33459853zm1.6193454 6.50277371c-1.1726294-.39240877-2.4010984-.61664232-3.6295673-.61664232-.7259135 0-1.5076665.0560584-2.23358.22423359-.2791975-.56058396-.558395-1.17722628-.8375925-1.73781023.3908765-.16817519.7259135-.28029196 1.0609505-.44846715 1.563506-.72875913 2.7919749-1.68175182 3.6854069-2.8589781 1.228469 1.40145987 1.9543824 3.25138687 1.9543824 5.26948906zm-8.59928272 7.79211682c-.1675185 0-.33503699-.0560584-.50255549-.0560584h-.11167898c-1.28430845-.2242336-2.51277743-.7287592-3.5178884-1.5696351 1.28430845-2.6908029 3.62956738-4.6528467 6.36570279-5.49372259.8375925 1.96204379 1.5076665 4.14832119 1.786864 6.39065689-1.005111.4484672-2.121901.7287592-3.29453043.7287592h-.22335801c-.223358.0560584-.33503699.0560584-.50255548 0zm4.85803632-1.1772263c-.223358-1.6256934-.6700739-3.3074452-1.2843084-5.1013139-.111679-.3363503-.2791975-.6727007-.3908765-1.00905107.6142345-.11211678 1.228469-.16817518 1.8427034-.16817518 1.228469 0 2.4010985.22423359 3.5737279.67270075-.3908765 2.3544525-1.7868639 4.3725547-3.7412464 5.6058394zm1.11679-12.72525549c-1.11679 1.51357664-2.7919749 2.46656933-4.52299938 3.13927006-.11167898-.16817518-.16751849-.33635036-.27919748-.50452555-1.17262946-2.01810219-2.23357994-3.58773723-2.84781441-4.31649634.72591349-.22423358 1.50766645-.33635036 2.28941942-.33635036 2.06606145-.05605837 3.96460445.72875913 5.36059185 2.01810219zm-8.54344326-1.40145983c.50255549.61664232 1.67518495 2.29839415 2.95949341 4.48467152.0558395.11211678.11167898.22423359.16751849.33635036-.89343198.28029196-1.78686394.50452555-2.56861693.61664233-2.23357995.39240877-4.24380189.39240877-5.13723384.39240877.50255552-2.63474452 2.23357994-4.76496352 4.57883887-5.83007298zm-4.74635733 7.34364962c0-.22423359 0-.39240877.05583951-.56058395h.72591349c1.06095048 0 2.7919749-.05605841 4.69051786-.39240877 1.06095048-.16817519 2.01022194-.39240877 2.90365392-.72875914.27919748.50452555.55839499 1.0651095.83759251 1.68175183-2.90365396.84087591-5.36059187 2.91503653-6.75657934 5.71795623-1.563506-1.4575182-2.45693795-3.4756204-2.45693795-5.7179562z" fill="#fff" stroke="#fff" stroke-width=".4" transform="translate(6 6)"/></svg>

<?xml version="1.0" encoding="UTF-8"?>
<svg width="30px" height="30px" viewBox="0 0 30 30" version="1.1" xmlns="http://www.w3.org/2000/svg" xmlns:xlink="http://www.w3.org/1999/xlink">
    <!-- Generator: Sketch 53.1 (72631) - https://sketchapp.com -->
    <title>投资组合/dribbble@2x</title>
    <desc>Created with Sketch.</desc>
    <g id="投资组合/dribbble" stroke="none" stroke-width="1" fill="none" fill-rule="evenodd">
        <g id="dribbble" transform="translate(6.000000, 6.000000)" fill="#FFFFFF" fill-rule="nonzero" stroke="#FFFFFF" stroke-width="0.4">
            <g id="Group">
                <path d="M15.2747203,2.66540147 C13.5995353,0.983649646 11.3659554,0.0306569562 8.96485696,0.0306569562 C6.56375852,0.0306569562 4.33017861,0.983649646 2.65499366,2.66540147 C0.979808708,4.3471533 0.0305372475,6.58948907 0.0305372475,9 C0.0305372475,11.4105109 0.979808708,13.6528467 2.65499366,15.3345985 C4.33017861,17.0163504 6.56375855,17.969343 8.96485696,17.969343 C11.3659554,17.969343 13.5995353,17.0163504 15.2747203,15.3345985 C16.9499052,13.6528467 17.8991767,11.4105109 17.8991767,9 C17.8991767,6.58948907 16.9499052,4.3471533 15.2747203,2.66540147 Z M16.8940657,9.16817518 C15.7214363,8.77576641 14.4929673,8.55153286 13.2644984,8.55153286 C12.5385849,8.55153286 11.7568319,8.60759126 11.0309184,8.77576645 C10.7517209,8.21518249 10.4725234,7.59854017 10.1933259,7.03795622 C10.5842024,6.86978103 10.9192394,6.75766426 11.2542764,6.58948907 C12.8177824,5.86072994 14.0462513,4.90773725 14.9396833,3.73051097 C16.1681523,5.13197084 16.8940657,6.98189784 16.8940657,9.00000003 L16.8940657,9.16817518 Z M8.29478298,16.960292 C8.12726448,16.960292 7.95974599,16.9042336 7.79222749,16.9042336 L7.68054851,16.9042336 C6.39624006,16.68 5.16777108,16.1754744 4.16266011,15.3345985 C5.44696856,12.6437956 7.79222749,10.6817518 10.5283629,9.84087591 C11.3659554,11.8029197 12.0360294,13.9891971 12.3152269,16.2315328 C11.3101159,16.68 10.1933259,16.960292 9.02069647,16.960292 L8.79733846,16.960292 C8.57398046,17.0163504 8.46230147,17.0163504 8.29478298,16.960292 Z M13.1528193,15.7830657 C12.9294613,14.1573723 12.4827454,12.4756205 11.8685109,10.6817518 C11.7568319,10.3454015 11.5893134,10.0090511 11.4776344,9.67270073 C12.0918689,9.56058395 12.7061034,9.50452555 13.3203378,9.50452555 C14.5488068,9.50452555 15.7214363,9.72875914 16.8940657,10.1772263 C16.5031892,12.5316788 15.1072018,14.549781 13.1528193,15.7830657 Z M14.2696093,3.05781021 C13.1528193,4.57138685 11.4776344,5.52437954 9.74660992,6.19708027 C9.63493094,6.02890509 9.57909143,5.86072991 9.46741244,5.69255472 C8.29478298,3.67445253 7.2338325,2.10481749 6.61959803,1.37605838 C7.34551152,1.1518248 8.12726448,1.03970802 8.90901745,1.03970802 C10.9750789,0.983649646 12.8736219,1.76846715 14.2696093,3.05781021 Z M5.72616604,1.65635038 C6.22872153,2.2729927 7.40135099,3.95474453 8.68565945,6.1410219 C8.74149895,6.25313868 8.79733843,6.36525549 8.85317794,6.47737226 C7.95974596,6.75766422 7.066314,6.98189781 6.28456101,7.09401459 C4.05098106,7.48642336 2.04075912,7.48642336 1.14732717,7.48642336 C1.64988269,4.85167884 3.38090711,2.72145984 5.72616604,1.65635038 Z M0.979808708,9 C0.979808708,8.77576641 0.979808708,8.60759123 1.03564822,8.43941605 L1.76156171,8.43941605 C2.82251219,8.43941605 4.55353661,8.38335764 6.45207957,8.04700728 C7.51303005,7.87883209 8.46230151,7.65459851 9.35573349,7.31824814 C9.63493097,7.82277369 9.91412848,8.38335764 10.193326,8.99999997 C7.28967204,9.84087588 4.83273413,11.9150365 3.43674666,14.7179562 C1.87324066,13.260438 0.979808708,11.2423358 0.979808708,9 Z" id="Shape"></path>
            </g>
        </g>
    </g>
</svg>
